packages/bezier-icons/icons/person-check.svg

<svg width="24" height="24" viewBox="0 0 24 24" fill="none" xmlns="http://www.w3.org/2000/svg">
<path d="M9.48396 11.0001C11.417 11.0001 12.984 9.43312 12.984 7.50012C12.984 5.56712 11.417 4.00012 9.48396 4.00012C7.55096 4.00012 5.98396 5.56712 5.98396 7.50012C5.98396 9.43312 7.55096 11.0001 9.48396 11.0001Z" fill="#313234"/>
<path d="M9.65158 12.0071C12.6998 12.1344 15.3073 13.9676 16.5444 16.5769L15.5 17.6213L13.2574 15.3787L10.4289 18.2071L12.2218 20L2.00706 20.0001C1.72206 20.0001 1.48206 19.7601 1.50106 19.4761C1.75969 15.4778 4.95548 12.2797 8.95258 12.0175C9.06673 12.0061 9.1861 12 9.31184 12C9.34251 12 9.37315 12.0002 9.40374 12.0005C9.43048 12.0003 9.45725 12.0001 9.48406 12.0001C9.5407 12.0001 9.59653 12.0025 9.65158 12.0071Z" fill="#313234"/>
<path d="M19.7426 14.7929L15.5 19.0355L13.2574 16.7929L11.8431 18.2071L15.5 21.8639L21.1569 16.2071L19.7426 14.7929Z" fill="#313234"/>
</svg>

<svg xmlns="http://www.w3.org/2000/svg" width="24" height="24" fill="none" viewBox="0 0 24 24"><path fill="#313234" d="M9.484 11a3.5 3.5 0 1 0 0-7 3.5 3.5 0 0 0 0 7M9.652 12.007a8 8 0 0 1 6.892 4.57L15.5 17.62l-2.243-2.242-2.828 2.828L12.222 20H2.007a.503.503 0 0 1-.506-.524 8 8 0 0 1 7.452-7.458 4 4 0 0 1 .45-.018h.081q.085 0 .168.007"/><path fill="#313234" d="M19.743 14.793 15.5 19.036l-2.243-2.243-1.414 1.414 3.657 3.657 5.657-5.657z"/></svg>
